!!! OTL: Literature56
!!! Chapter: 5
!!! Section: II
!!! Page: 357
!!! Mode: 
!!! Encoder: DJB
**kern
*staff1
*I"Piano
=1-
*clefG2
*k[f#c#]
*D:
*M2/4
4r
8r
24A/LL
24B/
24c#/JJ
=2
8d/L
8e/J
8f#/L
8g/J
=3
16b/LL
16a/
16a/
16a/JJ
8a/L
8f#/J
=4
16a/LL
16g/
16g/
16g/JJ
8g/L
8e/J
=5
16b/LL
16a/
16a/
16a/JJ
8a/L
8A/J
=6
8d/L
8e/J
8f#/L
8g/J
=7
16b/LL
16a/
16a/
16a/JJ
8a\L
8dd\J
=8
8cc#\L
16a\L
16a\JJ
8g/L
8e/J
=9
4d/
8r
24a\LL
24b\
24cc#\JJ
=10
!!linebreak:original
8dd\L
8cc#\J
8b/L
8a/J
=11
8b/L
8a/J
4f#/
=12
8a/L
8g/J
4e/
=13
8b/L
8a/J
8f#/L
24a/L
24b/
24cc#/JJ
=14
8dd\L
8cc#\J
8b/L
8a/J
=15
8b/L
8a/J
8f#/L
8a/J
=16
8e/L
16f#/L
16g/JJ
8f#/L
8e/J
=17
4d/
8dd\
8r
==
*-
